assets/offering/ovader2.svg

<svg width="48" height="47" viewBox="0 0 48 47" fill="none" xmlns="http://www.w3.org/2000/svg">
<mask id="mask0" mask-type="alpha" maskUnits="userSpaceOnUse" x="0" y="0" width="49" height="47">
<path fill-rule="evenodd" clip-rule="evenodd" d="M0.00012207 0.232422H48V46.7952H0.00012207V0.232422Z" fill="white"/>
</mask>
<g mask="url(#mask0)">
<path fill-rule="evenodd" clip-rule="evenodd" d="M48.0001 23.5139C48.0001 36.3721 37.2551 46.7954 24.0001 46.7954C10.7451 46.7954 0.00012207 36.3721 0.00012207 23.5139C0.00012207 10.6557 10.7451 0.232422 24.0001 0.232422C37.2551 0.232422 48.0001 10.6557 48.0001 23.5139Z" fill="#FF8A80"/>
</g>
<path fill-rule="evenodd" clip-rule="evenodd" d="M25.8947 37.7571V31.9571H23.8347V25.3675H24.8347V30.987H26.8947V35.361L32.5027 29.7434H30.2047L32.0567 25.189L32.9867 25.545L31.6727 28.7733H34.8647L25.8947 37.7571Z" fill="white"/>
<path fill-rule="evenodd" clip-rule="evenodd" d="M15.3038 30.5401C15.0278 30.5401 14.8038 30.3228 14.8038 30.0551V25.3561C14.8038 25.0874 15.0278 24.8711 15.3038 24.8711C15.5798 24.8711 15.8038 25.0874 15.8038 25.3561V30.0551C15.8038 30.3228 15.5798 30.5401 15.3038 30.5401Z" fill="white"/>
<path fill-rule="evenodd" clip-rule="evenodd" d="M19.7179 35.7136C19.4419 35.7136 19.2179 35.4963 19.2179 35.2286V25.7443C19.2179 25.4756 19.4419 25.2593 19.7179 25.2593C19.9939 25.2593 20.2179 25.4756 20.2179 25.7443V35.2286C20.2179 35.4963 19.9939 35.7136 19.7179 35.7136Z" fill="white"/>
<path fill-rule="evenodd" clip-rule="evenodd" d="M14.0167 18.4025C12.1447 18.4025 10.6777 19.8256 10.6777 21.6415C10.6777 23.4584 12.1447 24.8815 14.0167 24.8815H34.3667C35.9957 24.8815 37.3227 23.5962 37.3227 22.015C37.3227 20.4066 36.0237 19.1475 34.3667 19.1475C33.9227 19.1475 33.5547 19.2261 33.2077 19.3939C33.0157 19.488 32.7827 19.4521 32.6307 19.3037C32.4787 19.1562 32.4417 18.9302 32.5377 18.7439C32.6517 18.5208 32.7147 18.2279 32.7147 17.9174C32.7147 16.5419 31.5617 15.4224 30.1437 15.4224C29.5687 15.4224 29.1207 15.6058 28.6247 15.8803C28.4917 15.955 28.3287 15.9657 28.1837 15.9065C28.0397 15.8483 27.9327 15.728 27.8937 15.5825C27.1547 12.8566 24.6057 10.9534 21.6967 10.9534C18.1617 10.9534 15.2857 13.7433 15.2857 17.1724C15.2857 17.4266 15.2857 17.6905 15.3357 17.8398C15.3937 18.0077 15.3517 18.192 15.2277 18.322C15.1037 18.451 14.9157 18.5072 14.7407 18.4626C14.4937 18.4025 14.3137 18.4025 14.0167 18.4025ZM34.3667 25.8517H14.0167C11.5837 25.8517 9.67773 24.0027 9.67773 21.6416C9.67773 19.2814 11.5837 17.4325 14.0167 17.4325C14.1097 17.4325 14.1987 17.4325 14.2877 17.4344C14.2857 17.3471 14.2857 17.2598 14.2857 17.1725C14.2857 13.2089 17.6097 9.9834 21.6967 9.9834C24.8527 9.9834 27.6417 11.9216 28.6787 14.7648C29.0917 14.5873 29.5727 14.4525 30.1437 14.4525C32.1127 14.4525 33.7147 16.0075 33.7147 17.9175C33.7147 18.0223 33.7097 18.1271 33.6997 18.2299C33.9127 18.195 34.1337 18.1775 34.3667 18.1775C36.5477 18.1775 38.3227 19.8984 38.3227 22.0151C38.3227 24.1308 36.5477 25.8517 34.3667 25.8517Z" fill="white"/>
</svg>

<svg width="48" height="47" viewBox="0 0 48 47" fill="none" xmlns="http://www.w3.org/2000/svg"><mask id="a" maskUnits="userSpaceOnUse" x="0" y="0" width="49" height="47"><path fill-rule="evenodd" clip-rule="evenodd" d="M0 .232h48v46.563H0V.232z" fill="#fff"/></mask><g mask="url(#a)"><path fill-rule="evenodd" clip-rule="evenodd" d="M48 23.514c0 12.858-10.745 23.281-24 23.281S0 36.372 0 23.514C0 10.656 10.745.232 24 .232s24 10.424 24 23.282z" fill="#FF8A80"/></g><path fill-rule="evenodd" clip-rule="evenodd" d="M25.895 37.757v-5.8h-2.06v-6.59h1v5.62h2.06v4.374l5.608-5.618h-2.298l1.852-4.554.93.356-1.314 3.228h3.192l-8.97 8.984zM15.304 30.54a.493.493 0 01-.5-.485v-4.699c0-.269.224-.485.5-.485s.5.216.5.485v4.7a.493.493 0 01-.5.484zM19.718 35.714a.493.493 0 01-.5-.485v-9.485c0-.268.224-.485.5-.485s.5.217.5.485v9.485a.493.493 0 01-.5.485z" fill="#fff"/><path fill-rule="evenodd" clip-rule="evenodd" d="M14.017 18.402c-1.872 0-3.34 1.424-3.34 3.24 0 1.816 1.468 3.24 3.34 3.24h20.35c1.629 0 2.956-1.286 2.956-2.867 0-1.608-1.3-2.867-2.956-2.867a2.57 2.57 0 00-1.16.246.509.509 0 01-.576-.09.475.475 0 01-.093-.56c.114-.223.177-.516.177-.827 0-1.375-1.153-2.495-2.571-2.495-.575 0-1.023.184-1.52.458a.51.51 0 01-.44.026.487.487 0 01-.29-.324c-.74-2.725-3.288-4.629-6.197-4.629-3.535 0-6.411 2.79-6.411 6.22 0 .254 0 .518.05.667a.473.473 0 01-.108.482.507.507 0 01-.487.14c-.247-.06-.427-.06-.724-.06zm20.35 7.45h-20.35c-2.433 0-4.34-1.85-4.34-4.21s1.907-4.21 4.34-4.21c.093 0 .182 0 .27.002l-.001-.262c0-3.963 3.324-7.189 7.41-7.189 3.157 0 5.946 1.939 6.983 4.782a3.648 3.648 0 011.465-.313c1.969 0 3.57 1.556 3.57 3.466 0 .104-.004.21-.014.312a4.11 4.11 0 01.667-.053c2.18 0 3.956 1.721 3.956 3.838 0 2.116-1.775 3.837-3.956 3.837z" fill="#fff"/></svg>
